status/avatar-default-symbolic.svg

<?xml version="1.0" encoding="UTF-8" standalone="no"?>
<!-- Created with Inkscape (http://www.inkscape.org/) -->

<svg
   xmlns:dc="http://purl.org/dc/elements/1.1/"
   xmlns:cc="http://creativecommons.org/ns#"
   xmlns:rdf="http://www.w3.org/1999/02/22-rdf-syntax-ns#"
   xmlns:svg="http://www.w3.org/2000/svg"
   xmlns="http://www.w3.org/2000/svg"
   xmlns:sodipodi="http://sodipodi.sourceforge.net/DTD/sodipodi-0.dtd"
   xmlns:inkscape="http://www.inkscape.org/namespaces/inkscape"
   width="16"
   height="16"
   id="svg4152"
   version="1.1"
   inkscape:version="0.92.2 5c3e80d, 2017-08-06"
   viewBox="0 0 16 16"
   sodipodi:docname="avatar-default-symbolic.svg">
  <defs
     id="defs4154" />
  <sodipodi:namedview
     id="base"
     pagecolor="#ededed"
     bordercolor="#000000"
     borderopacity="0.49803922"
     inkscape:pageopacity="0"
     inkscape:pageshadow="2"
     inkscape:zoom="31.392432"
     inkscape:cx="4.6121643"
     inkscape:cy="9.7980043"
     inkscape:current-layer="layer1"
     showgrid="true"
     inkscape:grid-bbox="true"
     inkscape:document-units="px"
     inkscape:showpageshadow="false"
     borderlayer="true"
     inkscape:window-width="1920"
     inkscape:window-height="1012"
     inkscape:window-x="0"
     inkscape:window-y="32"
     inkscape:window-maximized="1">
    <inkscape:grid
       type="xygrid"
       id="grid4700"
       color="#000000"
       opacity="0.0627451"
       empcolor="#000000"
       empopacity="0.1254902"
       empspacing="4"
       spacingx="2"
       spacingy="2" />
  </sodipodi:namedview>
  <metadata
     id="metadata4157">
    <rdf:RDF>
      <cc:Work
         rdf:about="">
        <dc:format>image/svg+xml</dc:format>
        <dc:type
           rdf:resource="http://purl.org/dc/dcmitype/StillImage" />
        <dc:title />
      </cc:Work>
    </rdf:RDF>
  </metadata>
  <g
     id="layer1"
     inkscape:label="Layer 1"
     inkscape:groupmode="layer">
    <path
       style="opacity:0.98999999;fill:#000000;fill-opacity:1;stroke:none;stroke-width:2;stroke-linecap:round;stroke-linejoin:round;stroke-miterlimit:4;stroke-dasharray:none;stroke-opacity:1"
       d="M 8 0 C 3.5935666 0 0 3.5935666 0 8 C 0 12.406433 3.5935666 16 8 16 C 12.406433 16 16 12.406433 16 8 C 16 3.5935666 12.406433 0 8 0 z M 8 2 C 11.325553 2 14 4.6744469 14 8 C 14 9.8942332 13.131026 11.574055 11.769531 12.671875 A 4 4 0 0 0 10.115234 10.605469 A 4 4 0 0 0 5.8554688 10.623047 A 4 4 0 0 0 4.2324219 12.673828 C 2.8697073 11.576046 2 9.8952166 2 8 C 2 4.6744469 4.6744469 2 8 2 z M 8 5 A 2 2 0 0 0 6 7 A 2 2 0 0 0 8 9 A 2 2 0 0 0 10 7 A 2 2 0 0 0 8 5 z "
       id="path814" />
  </g>
</svg>

<svg xmlns="http://www.w3.org/2000/svg" width="16" height="16">
    <path d="M8 0C3.594 0 0 3.594 0 8c0 4.406 3.594 8 8 8 4.406 0 8-3.594 8-8 0-4.406-3.594-8-8-8zm0 2c3.326 0 6 2.674 6 6a5.977 5.977 0 0 1-2.23 4.672 4 4 0 0 0-1.655-2.067 4 4 0 0 0-4.26.018 4 4 0 0 0-1.623 2.05A5.977 5.977 0 0 1 2 8c0-3.326 2.674-6 6-6zm0 3a2 2 0 0 0-2 2 2 2 0 0 0 2 2 2 2 0 0 0 2-2 2 2 0 0 0-2-2z" opacity=".99"/>
</svg>
